X:1
T:James Gibb editions
T:Psalm 71 (Becker) - Schütz
%%score [ ( 1 2 ) ( 3 4 ) ]
L:1/8
Q:1/4=100
M:2/2
K:F
V:1 treble nm="Soprano Alto"
V:2 treble 
V:3 bass nm="Tenor Bass"
V:4 bass 
V:1
"^Cornelius Becker\n(1561-1604)""^Psalm 71, SWV 168""^Heinrich Schütz\n(1585-1672)" c4 A4 | %1
w: ~Auf dich,|
w: rett mich|
 c2 d4 c2 | B2 (AG) A4 | F4 A4- | A2 B2 c2 A2 | d4 c4 :|[M:2/2] c4 _e4 | d2 c4 A2 | (cB) A2 G4 | %9
w: Herr, trau ich|al- le\- * zeit,|laß mich|* zu Schand nicht|Wer- den,|dein gnä-|dig Ohr neig|her * zu mir,|
w: durch dein Ge-|rech- tig\- * keit,|hilf mir|* aus Not und|G'fähr- den,||||
 c4 f4 | d2 _e4 d2 | c4 B4 | z2 d4 c2 | B4 A4 | z2 F2 A2 c2 | F2 G2 A4 | E4 F2 G2 | (A3 B c2) B2 | %18
w: du star-|ker Gott ge-|prei- set,|||daß ich stets|fleh zu dir|und mich nichts|von * * dir|
w: |||||||||
 A2 (GF G4) | F8 |] %20
w: rei\- * * *|ße.|
w: ||
V:2
 F4 F4 | F2 F4 F2 | F2 E2 F4 | F4 F4- | F2 F2 F2 E2 | G4 G4 :|[M:2/2] F4 G4 | F2 E4 C2 | G2 F2 E4 | %9
 G4 F4 | F2 G4 F2 | F4 F4 | z2 D4 F2 | (F2 E2) F4 | z2 C2 C2 C2 | D2 D2 ^C4 | ^C4 D2 E2 | F6 F2 | %18
 (E2 F4 E2) | F8 |] %20
V:3
 A,4 C4 | C2 B,4 C2 | D2 (CB,) C4 | A,4 D4- | D2 D2 A,2 C2- | C2 =B,2 C4 :|[M:2/2] A,4 B,4 | %7
w: |||||||
 B,2 G,4 F,2 | G,2 C2 C4 | E4 C4 | D2 B,4 B,2 | A,4 B,4 | z2 F4 C2 | (D2 CB,) C4 | z2 A,2 F,2 G,2 | %15
w: |||||Hülf be-|wei\- * * se,||
 A,2 D,2 E,4 | %16
w: |
"^2. Dein Hülf mir zu gesaget hast, \nmein Fels, mein Burg in Nöten, \ndie Gottlosen lan mir kein Rast, \naus ihrer Hand mich rette, \nhilf mir von der Tyrannen Hauf,\nmein Zuversicht und Stärke, \nmein Bitt merke, \nHerr, Herr, von Jugend auf\nerhalt'n mich deine Werke.\n\n3. Von Mutterleib verlaß ich mich \nauf dich, mein Gott und Herren, \ndu brachtest mich ans Tageslicht , \nda ich sollt gebor'n werden, \nmein Ruhm auf dich ist ganz gericht, \nviel Leut ein'm Wunderzeichen\n mich vergleichen, \ndu bist mein Zuversicht, \nmein Stärk , von mir nicht weiche." A,4 A,2 C2 | %17
w: |
"^4. Laß meinen Mund deins Ruhms voll sein, \ndaß ich dich täglich preise, \nverwirf mich nicht im Alter mein, \nwenn ich nun wird zum Greise \nund nehm an meinen Kräften ab, \ndein Güt nicht von mir wende, \nselig enden \nhilf mir durch deine Gnad, \nes steht in deinen Händen.\n\n7. Drauf will ich hoffen immerdar \nund dein Lob stets vermehren \nund will verkünden offenbar \ndie G'rechtigkeit meins Herren,\nwie er aus lauter Gnad und Gunst\nun zählig viel tut geben, \nGnad und Leben, \nohn all Verdienst umsonst,\ndanach wir sollen leben." (C3 B, A,2)"^8. Ich geh in großer Kraft herein \ndes Herren aller Herren, \nseine Gerechtigkeit allein \npreis ich von Herzen gerne. \nGott, du hast mich allzeit gelehrt, \nwas ich in meinen Jahren \nhab erfahren, \ndein Wunder hoch vermehrt \nzu rühmen ich nicht spare.\n\n9. Verlaß mich nicht, mein treuer Gott, \nin meinem Alter schwere, \nauf daß ich dein Recht und Gebot \nauch die Nachkommen lehre, \ndamit deins Armes Kraft und Stärk \nstets mög werden verkündet\nKindeskinden, \nund rühmen deine Werk\nall, die sich künftig finden." D2 | %18
w: |
 (C2 B,A, C4) | C8 |] %20
w: ||
V:4
 F,4 F,4 | A,2 B,4 A,2 | G,2 G,2 F,4 | F,4 D,4- | D,2 B,,2 F,2 A,2 | G,4 C,4 :|[M:2/2] F,4 _E,4 | %7
 B,,2 C,4 F,2 | E,2 F,2 C,4 | C,4 A,4 | B,2 _E,4 B,,2 | F,4 B,,4 | z2 B,4 A,2 | G,4 F,4 | %14
 z2 F,2 F,2 E,2 | D,2 B,,2 A,,4 | A,,4 D,2 C,2 | F,6 B,,2 | (C,2 D,2 C,4) | F,,8 |] %20

